assets/img/braze_icons/film-03.svg

<svg fill="none" height="24" viewBox="0 0 24 24" width="24" xmlns="http://www.w3.org/2000/svg"><path clip-rule="evenodd" d="m11.1382 1.01695c.2286.01868.4984.06274.7698.20104.3763.19175.6823.49771.874.87403.1383.27143.1824.54116.2011.76976.0036.04445.0064.09063.0087.13822h4.2495c.805-.00001 1.4693-.00002 2.0105.04419.5621.04593 1.0788.14449 1.5642.39178.7526.3835 1.3645.99542 1.748 1.74807.2473.48533.3459 1.00204.3918 1.56413.0442.54121.0442 1.20557.0442 2.01056v8.48257c0 .805 0 1.4693-.0442 2.0105-.0459.5621-.1445 1.0788-.3918 1.5642-.3835.7526-.9954 1.3645-1.748 1.748-.4854.2473-1.0021.3459-1.5642.3918-.5412.0442-1.2055.0442-2.0105.0442h-3.6732c-.2523 0-.4982.0001-.7063-.0169-.2286-.0187-.4984-.0628-.7698-.2011-.3763-.1917-.6823-.4977-.874-.874-.1383-.2714-.1824-.5412-.201-.7698-.0037-.0444-.0065-.0906-.0088-.1382h-4.24952c-.80496 0-1.46931 0-2.0105-.0442-.5621-.0459-1.07881-.1445-1.56414-.3918-.75265-.3835-1.36457-.9954-1.74806-1.748-.2473-.4854-.34586-1.0021-.39179-1.5642-.044212-.5412-.044202-1.2055-.04419-2.0105v-8.48259c-.000012-.80497-.000022-1.46934.04419-2.01053.04593-.5621.14449-1.0788.39179-1.56414.38349-.75265.99541-1.36457 1.74806-1.74806.48533-.24729 1.00204-.34586 1.56414-.39178.54119-.044219 1.20555-.044208 2.01052-.0442h3.6732c.2524-.000027.4982-.000057.7063.01695zm-3.1382 1.98306v1.99999h3v-2zm-3.08896.03755c.29359-.02399.64343-.03266 1.08896-.03579v1.99823h-2.96914c.00209-.03023.00432-.05987.00669-.08896.03582-.43841.10075-.66262.18044-.81902.19174-.37632.49771-.68228.87403-.87403.1564-.07969.3806-.14461.81902-.18043zm3.08896 13.96244h3v2h-3zm-2 0v1.9982c-.44553-.0031-.79537-.0118-1.08896-.0357-.43842-.0359-.66262-.1008-.81902-.1805-.37632-.1917-.68229-.4977-.87403-.874-.07969-.1564-.14462-.3806-.18044-.819-.00237-.0291-.0046-.0588-.00669-.089zm7 2v2h3v-2zm5 1.9982c.4455-.0031.7954-.0118 1.089-.0358.4384-.0358.6626-.1007.819-.1804.3763-.1917.6823-.4977.874-.874.0797-.1564.1446-.3806.1805-.819.0023-.0291.0046-.0588.0066-.089h-2.9691zm-5-13.9982h3v-2h-3zm5-1.99824v1.99824h2.9691c-.002-.03023-.0043-.05987-.0066-.08896-.0359-.43842-.1008-.66262-.1805-.81902-.1917-.37632-.4977-.68229-.874-.87403-.1564-.07969-.3806-.14462-.819-.18044-.2936-.02398-.6435-.03266-1.089-.03579z" fill="#801ed7" fill-rule="evenodd"/></svg>

<svg width="24" height="24" viewBox="0 0 24 24" fill="none" xmlns="http://www.w3.org/2000/svg">
<path fill-rule="evenodd" clip-rule="evenodd" d="M11.1382 1.01695C11.3668 1.03563 11.6366 1.07969 11.908 1.21799C12.2843 1.40974 12.5903 1.7157 12.782 2.09202C12.9203 2.36345 12.9644 2.63318 12.9831 2.86178C12.9867 2.90623 12.9895 2.95241 12.9918 3L17.2413 3C18.0463 2.99999 18.7106 2.99998 19.2518 3.04419C19.8139 3.09012 20.3306 3.18868 20.816 3.43597C21.5686 3.81947 22.1805 4.43139 22.564 5.18404C22.8113 5.66937 22.9099 6.18608 22.9558 6.74817C23 7.28938 23 7.95374 23 8.75873V17.2413C23 18.0463 23 18.7106 22.9558 19.2518C22.9099 19.8139 22.8113 20.3306 22.564 20.816C22.1805 21.5686 21.5686 22.1805 20.816 22.564C20.3306 22.8113 19.8139 22.9099 19.2518 22.9558C18.7106 23 18.0463 23 17.2413 23L13.5681 23C13.3158 23 13.0699 23.0001 12.8618 22.9831C12.6332 22.9644 12.3634 22.9203 12.092 22.782C11.7157 22.5903 11.4097 22.2843 11.218 21.908C11.0797 21.6366 11.0356 21.3668 11.017 21.1382C11.0133 21.0938 11.0105 21.0476 11.0082 21H6.75868C5.95372 21 5.28937 21 4.74818 20.9558C4.18608 20.9099 3.66937 20.8113 3.18404 20.564C2.43139 20.1805 1.81947 19.5686 1.43598 18.816C1.18868 18.3306 1.09012 17.8139 1.04419 17.2518C0.999978 16.7106 0.999988 16.0463 1 15.2413V6.75871C0.999988 5.95374 0.999978 5.28937 1.04419 4.74818C1.09012 4.18608 1.18868 3.66938 1.43598 3.18404C1.81947 2.43139 2.43139 1.81947 3.18404 1.43598C3.66937 1.18869 4.18608 1.09012 4.74818 1.0442C5.28937 0.999981 5.95373 0.999992 6.7587 1L10.4319 1C10.6843 0.999973 10.9301 0.999943 11.1382 1.01695ZM8 3.00001V5H11V3L8 3.00001ZM4.91104 3.03756C5.20463 3.01357 5.55447 3.0049 6 3.00177V5H3.03086C3.03295 4.96977 3.03518 4.94013 3.03755 4.91104C3.07337 4.47263 3.1383 4.24842 3.21799 4.09202C3.40973 3.7157 3.7157 3.40974 4.09202 3.21799C4.24842 3.1383 4.47262 3.07338 4.91104 3.03756ZM8 17H11L11 19L8 19V17ZM6 17V18.9982C5.55447 18.9951 5.20463 18.9864 4.91104 18.9625C4.47262 18.9266 4.24842 18.8617 4.09202 18.782C3.7157 18.5903 3.40973 18.2843 3.21799 17.908C3.1383 17.7516 3.07337 17.5274 3.03755 17.089C3.03518 17.0599 3.03295 17.0302 3.03086 17H6ZM13 19V21H16V19H13ZM18 20.9982C18.4455 20.9951 18.7954 20.9864 19.089 20.9624C19.5274 20.9266 19.7516 20.8617 19.908 20.782C20.2843 20.5903 20.5903 20.2843 20.782 19.908C20.8617 19.7516 20.9266 19.5274 20.9625 19.089C20.9648 19.0599 20.9671 19.0302 20.9691 19H18V20.9982ZM13 7H16V5L13 5L13 7ZM18 5.00176V7H20.9691C20.9671 6.96977 20.9648 6.94013 20.9625 6.91104C20.9266 6.47262 20.8617 6.24842 20.782 6.09202C20.5903 5.7157 20.2843 5.40973 19.908 5.21799C19.7516 5.1383 19.5274 5.07337 19.089 5.03755C18.7954 5.01357 18.4455 5.00489 18 5.00176Z" fill="#801ED7"/>
</svg>
